!!!SOCIAL_FUNCTION:	songs of war
!!!PDT:	1913
!!!OTL: No_32_Song_of_Help_in_the_Fight.krn
!!!REG: Great_Lakes
!!!LANG: Non-Tone
!!!LING_GROUP: Algonquin
**kern	**kern
*staff2	*staff1
=1-	=1-
*clefF4	*clefF4
*k[f#c#]	*k[f#c#]
*M2/4	*M2/4
8GG/L	4d\
8GG/J	.
8GG/L	4d\
8GG/J	.
=2||	=2||
*M3/4	*M3/4
8GG/L	(4.e-\
8GG/J	.
8GG/L	.
8GG/J	8d\)
8GG/L	4d\
8GG/J	.
=3	=3
2.r	2.d\
=4	=4
2.r	4d\
.	4c#\
.	4B\
=5||	=5||
*M2/4	*M2/4
2r	4A\
.	4A\
=6	=6
2r	4B\
.	4B\
=7	=7
2r	2A\
=8	=8
2r	4A\
.	4A\
=9||	=9||
*M3/4	*M3/4
2.r	2A\
.	4G#\
=10	=10
2.r	2.G\
=11	=11
2.r	4G\
.	4F#\
.	4E\
=12||	=12||
*M2/4	*M2/4
2r	4G\
.	4G\
=13	=13
2r	4A\
.	4A\
=14	=14
2r	2G\
=15	=15
2r	4G\
.	4G\
=16||	=16||
*M3/4	*M3/4
2.r	2G\
.	4E\
=17	=17
2.r	2.D\
=18	=18
2.r	4G\
.	4G\
.	4E\
=19||	=19||
*M2/4	*M2/4
2r	4D\
.	4D\
=20	=20
2r	4E\
.	4E\
=21	=21
2r	2D\
==	==
*-	*-
